X: 194
T:Domine, ne in furore / Cor meum conturbatum est
N: Derived from Jos1606-Domine_ne_in_furore.krn
C: Josquin des Prez
%%abc-version 2.0
%%abcx-abcm2ps-target-version 5.9.1 (29 Sep 2008)
%%abc-creator hum2abc beta
%%abcx-conversion-date 2019/02/12 16:15:47
%%abc-edited-by Jesse Rodin
%%abc-edited-by Jesse Rodin; Victoria Chang 2011/05/23
%%abcx-initial-encoding-date 2011/05/23/
%%humdrum-veritas 4094812921
%%humdrum-veritas-data 949916923
%%linebreak <none>
%%barnumbers 0
L: 1/4
M: 2/1
Q: 1/2=120
%%staves [1 2 3 4]
V: 1 clef=treble-8
V: 2 clef=treble-8
V: 3 clef=treble-8
V: 4 clef=bass
K: C
[V:1] E6C2 | 
[V:2] z4E4- | 
[V:3] z8 | 
[V:4] z8 | 
[V:1] G8 | 
[V:2] E2C2G4- | 
[V:3] E6C2 | 
[V:4] z4E,4- | 
[V:1] z4E4- | 
[V:2] G4z4 | 
[V:3] G8 | 
[V:4] E,2C,2G,4- | 
[V:1] E2C2G4 | 
[V:2] E6C2 | 
[V:3] z8 | 
[V:4] G,4z4 | 
[V:1] E3FG4 | 
[V:2] G4E2G2- | 
[V:3] z4E4- | 
[V:4] E,6C,2 | 
[V:1] C4z2c2- | 
[V:2] G2C2C4 | 
[V:3] E2C2G4 | 
[V:4] G,4E,4 | 
[V:1] c2A2d4 | 
[V:2] z4z2G2- | 
[V:3] A2c3B/A/B2 | 
[V:4] F,4G,4 | 
[V:1] c6BA | 
[V:2] G2E2A4 | 
[V:3] E2G2F4 | 
[V:4] C,4z4 | 
[V:1] B2c2G2A2- | 
[V:2] G4z4 | 
[V:3] E3DECc2- | 
[V:4] z2C,4A,,2 | 
[V:1] A2GFE4 | 
[V:2] z4z2G2- | 
[V:3] c2B2c4- | 
[V:4] D,4C,4- | 
[V:1] z2c4A2 | 
[V:2] G2E2A4 | 
[V:3] c4z4 | 
[V:4] C,4z4 | 
[V:1] d4c3B | 
[V:2] G3FEDC2- | 
[V:3] z2G4E2 | 
[V:4] z4C,4 | 
[V:1] cBAGF2c2- | 
[V:2] C2F2D2E2- | 
[V:3] A8 | 
[V:4] A,,2D,4C,2- | 
[V:1] cAd3cc2- | 
[V:2] EFG3FE2 | 
[V:3] G8 | 
[V:4] C,2B,,A,,B,,2C,2 | 
[V:1] c2B2c3B/A/ | 
[V:2] D4C4- | 
[V:3] z4E4- | 
[V:4] G,,4A,,3B,, | 
[V:1] G4z4 | 
[V:2] C8- | 
[V:3] E2C2G4 | 
[V:4] C,D,E,3D,C,B,, | 
[V:1] z8 | 
[V:2] C4z4 | 
[V:3] E3FG4 | 
[V:4] C,3B,,/A,,/B,,4 | 
[V:1] A6F2 | 
[V:2] z4A4- | 
[V:3] C4z4 | 
[V:4] A,,8 | 
[V:1] c4A3B | 
[V:2] A2F2c4 | 
[V:3] z8 | 
[V:4] z8 | 
[V:1] c4G4 | 
[V:2] A2c2B2G2- | 
[V:3] z8 | 
[V:4] z4E,4- | 
[V:1] z8 | 
[V:2] G2FEE4 | 
[V:3] z4B4- | 
[V:4] E,2C,2G,4 | 
[V:1] z8 | 
[V:2] z8 | 
[V:3] B2G2d4 | 
[V:4] E,4F,4 | 
[V:1] z8 | 
[V:2] E6C2 | 
[V:3] B4c4 | 
[V:4] G,4C,3B,,/A,,/ | 
[V:1] B6G2 | 
[V:2] G4E4 | 
[V:3] d4G4 | 
[V:4] G,,4z2C,2 | 
[V:1] d4B4 | 
[V:2] F4G4 | 
[V:3] z4z2G2 | 
[V:4] D,2D,2E,4 | 
[V:1] c4d4 | 
[V:2] C2E2D4 | 
[V:3] A2A2B4 | 
[V:4] A,,4z4 | 
[V:1] G4z4 | 
[V:2] C4z2F2 | 
[V:3] G2c2B2A2 | 
[V:4] z2C,2D,2D,2 | 
[V:1] z4z2c2 | 
[V:2] G2G2A4 | 
[V:3] G2E4DC | 
[V:4] E,4A,,4 | 
[V:1] d2d2e4 | 
[V:2] D4z4 | 
[V:3] F4E4 | 
[V:4] z4z2C,2 | 
[V:1] A4z4 | 
[V:2] z2F2G2G2 | 
[V:3] z8 | 
[V:4] D,2D,2E,4 | 
[V:1] z2c2d2d2 | 
[V:2] A4D2G2- | 
[V:3] z8 | 
[V:4] A,,4z4 | 
[V:1] e6dc | 
[V:2] G2FEE4 | 
[V:3] G6G2 | 
[V:4] z4C,4- | 
[V:1] c8 | 
[V:2] z8 | 
[V:3] c4A4- | 
[V:4] C,2C,2F,4 | 
[V:1] z2G2A2B2 | 
[V:2] z4z2G2 | 
[V:3] A2G2F2E2- | 
[V:4] D,2E,2F,2G,2 | 
[V:1] c4d4 | 
[V:2] G2A2B4 | 
[V:3] E2DCG4 | 
[V:4] C,4z4 | 
[V:1] e4dcde | 
[V:2] c4B3A/G/ | 
[V:3] C4z4 | 
[V:4] z8 | 
[V:1] f2e4dc | 
[V:2] A4G4- | 
[V:3] z8 | 
[V:4] z2A,,2E,4 | 
[V:1] B4A4- | 
[V:2] G4z4 | 
[V:3] z4z2D2 | 
[V:4] E,4F,4- | 
[V:1] A4z4 | 
[V:2] z8 | 
[V:3] A4A4 | 
[V:4] F,2E,D,C,2D,2 | 
[V:1] G4d4 | 
[V:2] z8 | 
[V:3] B3ABGc2- | 
[V:4] G,,2G,4F,E, | 
[V:1] d4e3d | 
[V:2] z4C4 | 
[V:3] c2B2c4 | 
[V:4] D,3C,A,,2C,2- | 
[V:1] efe3dd2- | 
[V:2] G4G4 | 
[V:3] z2C2D3E | 
[V:4] C,B,,C,2B,,4 | 
[V:1] d2^c2d4 | 
[V:2] A3GAFA2- | 
[V:3] F2C2F4 | 
[V:4] A,,4D,4 | 
[V:1] z2G2A3B | 
[V:2] AGG4^F2 | 
[V:3] E4D4 | 
[V:4] z8 | 
[V:1] c2G2c4 | 
[V:2] G8 | 
[V:3] z8 | 
[V:4] C,8 | 
[V:1] B4A4- | 
[V:2] z8 | 
[V:3] z8 | 
[V:4] D,3E,F,2C,2 | 
[V:1] A4z4 | 
[V:2] z4z2G2 | 
[V:3] z2A2B2c2 | 
[V:4] F,4E,4 | 
[V:1] z8 | 
[V:2] A3Bc2G2 | 
[V:3] d4e4 | 
[V:4] D,4z2C,2- | 
[V:1] z8 | 
[V:2] c4B4 | 
[V:3] z2E2G4 | 
[V:4] C,2A,,2E,4 | 
[V:1] z8 | 
[V:2] A4z2G2 | 
[V:3] A2c4B2 | 
[V:4] F,4E,4 | 
[V:1] z8 | 
[V:2] A2G2c4 | 
[V:3] c3B/A/G2A2 | 
[V:4] z2C,4A,,2 | 
[V:1] z2c4A2 | 
[V:2] B2G2A4 | 
[V:3] E2e3dd2- | 
[V:4] E,4F,4 | 
[V:1] e4f4 | 
[V:2] G4z4 | 
[V:3] dcc4B2 | 
[V:4] E,3D,/C,/D,4 | 
[V:1] e4z2c2- | 
[V:2] z2G4E2 | 
[V:3] c8 | 
[V:4] C,8 | 
[V:1] c2A2e4 | 
[V:2] F4E4 | 
[V:3] z8 | 
[V:4] z8 | 
[V:1] f4e4- | 
[V:2] D4G4 | 
[V:3] z8 | 
[V:4] z4z2C,2- | 
[V:1] e2dcB4 | 
[V:2] E2A4G2 | 
[V:3] z8 | 
[V:4] C,2A,,2E,4 | 
[V:1] A4z2e2 | 
[V:2] c6B2 | 
[V:3] z2A2B2G2 | 
[V:4] F,4E,4 | 
[V:1] e4e3d | 
[V:2] A2G2A4 | 
[V:3] c6c2 | 
[V:4] z2C,4A,,2 | 
[V:1] efe3dd2 | 
[V:2] G4z4 | 
[V:3] B4A2F2 | 
[V:4] E,4F,4 | 
[V:1] B2c3BA2- | 
[V:2] z8 | 
[V:3] GFEDC2E2- | 
[V:4] E,6D,C, | 
[V:1] A2^G2A4- | 
[V:2] z4c4- | 
[V:3] E2D2E4 | 
[V:4] B,,4A,,4- | 
[V:1] A4z4 | 
[V:2] c2B2A2G2 | 
[V:3] c6B2 | 
[V:4] A,,4z4 | 
[V:1] z8 | 
[V:2] F4c4- | 
[V:3] A3GF4 | 
[V:4] z8 | 
[V:1] z8 | 
[V:2] c2B2A2G2 | 
[V:3] c6B2 | 
[V:4] z8 | 
[V:1] z4A4- | 
[V:2] F4z4 | 
[V:3] A3GF4- | 
[V:4] z8 | 
[V:1] A2G2F2E2 | 
[V:2] z8 | 
[V:3] F4z4 | 
[V:4] D,6C,2 | 
[V:1] D4d4- | 
[V:2] z8 | 
[V:3] z8 | 
[V:4] B,,3A,,G,,4 | 
[V:1] d2c2B2A2 | 
[V:2] z8 | 
[V:3] z8 | 
[V:4] G,6F,2 | 
[V:1] G8 | 
[V:2] z4z2G2 | 
[V:3] z8 | 
[V:4] E,3D,C,4 | 
[V:1] z8 | 
[V:2] G2G2c4- | 
[V:3] z8 | 
[V:4] z2C,2C,2C,2 | 
[V:1] z8 | 
[V:2] c2BAG2A2 | 
[V:3] z8 | 
[V:4] F,4E,2D,2 | 
[V:1] z8 | 
[V:2] E4e4- | 
[V:3] z2G2G2G2 | 
[V:4] G,4C,4- | 
[V:1] z8 | 
[V:2] e2dcdGc2- | 
[V:3] c4B2A2 | 
[V:4] C,2B,,A,,G,,2F,,2 | 
[V:1] z2G2G2G2 | 
[V:2] c2B2c3B | 
[V:3] d4G4 | 
[V:4] G,,4C,4- | 
[V:1] c4B2A2 | 
[V:2] A3G/F/G2A2 | 
[V:3] z2C2E2F2 | 
[V:4] C,4z4 | 
[V:1] d4G4- | 
[V:2] F4E4- | 
[V:3] D4C4 | 
[V:4] z4z2C,2 | 
[V:1] G8 | 
[V:2] E4z2G2 | 
[V:3] z2c2c4 | 
[V:4] C,8 | 
[V:1] z2e2e4 | 
[V:2] A4E4 | 
[V:3] c8 | 
[V:4] A,,4z2C,2 | 
[V:1] e4z2e2 | 
[V:2] z2G2A4 | 
[V:3] z2c2c4 | 
[V:4] C,4A,,4 | 
[V:1] e4e4 | 
[V:2] E8 | 
[V:3] c8 | 
[V:4] C,6C,2 | 
[V:1] z8 | 
[V:2] A6A2 | 
[V:3] z2F4D2 | 
[V:4] D,4F,4 | 
[V:1] e6e2 | 
[V:2] c3B/A/B2c2 | 
[V:3] CDEFG2A2 | 
[V:4] E,8- | 
[V:1] e4e4 | 
[V:2] B2A4^G2 | 
[V:3] G2A2B4 | 
[V:4] E,8 | 
[V:1] c8 | 
[V:2] A8- | 
[V:3] A4z4 | 
[V:4] A,,4z2F,2 | 
[V:1] z2c2c2c2 | 
[V:2] A4z4 | 
[V:3] z8 | 
[V:4] F,2F,2E,2F,2 | 
[V:1] B2c2d4 | 
[V:2] z8 | 
[V:3] z8 | 
[V:4] G,2A,2D,3E, | 
[V:1] c4B2c2- | 
[V:2] z8 | 
[V:3] z8 | 
[V:4] F,2E,3D,C,B,, | 
[V:1] cBAGA4 | 
[V:2] z8 | 
[V:3] z2c2c2c2 | 
[V:4] A,,8 | 
[V:1] E2A4G2 | 
[V:2] z8 | 
[V:3] B2c2d4 | 
[V:4] z2A,,2B,,4 | 
[V:1] A3G/F/G2A2 | 
[V:2] z8 | 
[V:3] c4B2c2- | 
[V:4] A,,B,,C,D,E,2A,,2- | 
[V:1] E2F3EF2 | 
[V:2] c4c2c2 | 
[V:3] cBAGA4 | 
[V:4] A,,2F,,2F,,2F,,2 | 
[V:1] D2A4G2 | 
[V:2] B2c2d4 | 
[V:3] G2E4D2 | 
[V:4] G,,2A,,2_B,,4 | 
[V:1] A4E2e2- | 
[V:2] c4B2c2- | 
[V:3] E8 | 
[V:4] A,,4z2A,,2 | 
[V:1] edf3ee2- | 
[V:2] cBAGA2E2 | 
[V:3] A8- | 
[V:4] A,,2F,,2C,2C,2 | 
[V:1] e2d2e4- | 
[V:2] F4E4- | 
[V:3] A8 | 
[V:4] D,4A,,4- | 
[V:1] e8- | 
[V:2] E8- | 
[V:3] z8 | 
[V:4] A,,4z4 | 
[V:1] e4z4 | 
[V:2] E4z4 | 
[V:3] z4B4 | 
[V:4] E,4D,4 | 
[V:1] z8 | 
[V:2] z8 | 
[V:3] A4c4- | 
[V:4] F,6E,2 | 
[V:1] z4B4 | 
[V:2] E4D4 | 
[V:3] c2B2B4 | 
[V:4] E,4z4 | 
[V:1] A4c4- | 
[V:2] F6E2 | 
[V:3] z8 | 
[V:4] z8 | 
[V:1] c2B2B4 | 
[V:2] E4z4 | 
[V:3] z4B4 | 
[V:4] E,4D,4 | 
[V:1] z8 | 
[V:2] z8 | 
[V:3] A4c4- | 
[V:4] F,6E,2 | 
[V:1] z8 | 
[V:2] z8 | 
[V:3] c2B2B4- | 
[V:4] E,6D,2 | 
[V:1] z8 | 
[V:2] z8 | 
[V:3] B2A2B2c2 | 
[V:4] E,2F,2E,2D,C, | 
[V:1] z8 | 
[V:2] z4A4 | 
[V:3] d4c4- | 
[V:4] B,,4A,,2C,2- | 
[V:1] e4d4 | 
[V:2] G4_B4- | 
[V:3] c4z4 | 
[V:4] C,B,,C,2G,,4 | 
[V:1] f6e2 | 
[V:2] B2A2A4 | 
[V:3] z8 | 
[V:4] D,4z4 | 
[V:1] e4z4 | 
[V:2] z4A4 | 
[V:3] z8 | 
[V:4] z8 | 
[V:1] e4d4 | 
[V:2] G4_B4- | 
[V:3] z8 | 
[V:4] z8 | 
[V:1] f6e2 | 
[V:2] B2A2A4- | 
[V:3] z8 | 
[V:4] z8 | 
[V:1] e6d2 | 
[V:2] A2G2A2_B2 | 
[V:3] z8 | 
[V:4] z8 | 
[V:1] e2f2e3d/c/ | 
[V:2] A4G4 | 
[V:3] z8 | 
[V:4] z4C,4 | 
[V:1] B4A4 | 
[V:2] z8 | 
[V:3] z2G2A2c2- | 
[V:4] D,2E,2F,4 | 
[V:1] z8 | 
[V:2] z2E2F2G2 | 
[V:3] cBcB/A/B4 | 
[V:4] C,4D,2E,2 | 
[V:1] z2A2B2c2 | 
[V:2] A4z2E2 | 
[V:3] A4z4 | 
[V:4] A,,2D,4C,2 | 
[V:1] d4z2c2 | 
[V:2] F2G2A4 | 
[V:3] z2D2E2F2 | 
[V:4] B,,4A,,4 | 
[V:1] d2e2f4 | 
[V:2] z4z2D2 | 
[V:3] D2G2A2B2 | 
[V:4] G,,4z4 | 
[V:1] e3dd2c2- | 
[V:2] E3FG4 | 
[V:3] c4B2e2- | 
[V:4] z2A,,2B,,2C,2 | 
[V:1] c2B2c2f2- | 
[V:2] z2D2E2F2 | 
[V:3] edd2c4 | 
[V:4] D,4z2A,,2 | 
[V:1] fee4d2 | 
[V:2] G2E2F3E | 
[V:3] B2A3GAB | 
[V:4] B,,2C,2D,4 | 
[V:1] e3dcBA2- | 
[V:2] E3DE2F2- | 
[V:3] c4c4 | 
[V:4] A,,8 | 
[V:1] A2G2A2B2 | 
[V:2] FEE4D2 | 
[V:3] c3BA2G2 | 
[V:4] C,6B,,2 | 
[V:1] c4d4 | 
[V:2] E2F2G4 | 
[V:3] A4B4 | 
[V:4] A,,4G,,4 | 
[V:1] c8 ||  
[V:2] E8 ||  
[V:3] A8 ||  
[V:4] A,,8 ||  
[V:1] [M:2/1]z8 | 
[V:2] [M:2/1]E8 | 
[V:3] [M:2/1]z4E4- | 
[V:4] [M:2/1]z8 | 
[V:1] z8 | 
[V:2] G4C4 | 
[V:3] E4G4 | 
[V:4] z8 | 
[V:1] z8 | 
[V:2] c6B2 | 
[V:3] C4F4- | 
[V:4] z8 | 
[V:1] z8 | 
[V:2] A2G2A3G | 
[V:3] F2E2D2C2 | 
[V:4] z8 | 
[V:1] z8 | 
[V:2] ABA4GF | 
[V:3] F3E/D/E2A2- | 
[V:4] A,,8 | 
[V:1] z8 | 
[V:2] E2C2c3B | 
[V:3] A2G2A4 | 
[V:4] C,4F,,4 | 
[V:1] A8 | 
[V:2] cdc3BA2- | 
[V:3] z8 | 
[V:4] F,6F,2 | 
[V:1] c4F4 | 
[V:2] A2G2A4 | 
[V:3] z4d4 | 
[V:4] E,4D,4 | 
[V:1] f6f2 | 
[V:2] z2A2A4 | 
[V:3] d2d2d4 | 
[V:4] D,8 | 
[V:1] e4d4 | 
[V:2] A4D2G2- | 
[V:3] c4z4 | 
[V:4] z2A,,2B,,2G,,2 | 
[V:1] d8 | 
[V:2] G2^F2G3A | 
[V:3] z2A2B2G2 | 
[V:4] D,4G,,4- | 
[V:1] z2D2E2C2 | 
[V:2] Bcd3cc2- | 
[V:3] d4G4 | 
[V:4] G,,4z4 | 
[V:1] G4C4 | 
[V:2] cB/A/B2E4- | 
[V:3] z8 | 
[V:4] z2G,2G,4 | 
[V:1] z2G2A3B | 
[V:2] E4z4 | 
[V:3] z8 | 
[V:4] G,F,E,D,F,4 | 
[V:1] c2d4c2- | 
[V:2] z8 | 
[V:3] z8 | 
[V:4] E,2F,3E,D,C, | 
[V:1] c2B2c4 | 
[V:2] z8 | 
[V:3] z2D2E2C2 | 
[V:4] D,4C,3B,,/A,,/ | 
[V:1] z8 | 
[V:2] z2D2E2C2 | 
[V:3] G4C2c2 | 
[V:4] G,,4z4 | 
[V:1] z8 | 
[V:2] G4C2c2 | 
[V:3] d3c/d/e2c2- | 
[V:4] z8 | 
[V:1] z8 | 
[V:2] d3c/d/e2c2- | 
[V:3] c2B2c4 | 
[V:4] z2G,2E,2F,2 | 
[V:1] z2G2E2F2 | 
[V:2] c2B2c4 | 
[V:3] z8 | 
[V:4] G,4C,2D,2 | 
[V:1] G4A2B2 | 
[V:2] z8 | 
[V:3] z8 | 
[V:4] E,4A,,2E,2- | 
[V:1] c3de2f2- | 
[V:2] z8 | 
[V:3] z8 | 
[V:4] E,C,F,2E,2D,2- | 
[V:1] f2e4d2 | 
[V:2] z4z2G2 | 
[V:3] z2c2A2B2 | 
[V:4] D,2E,2F,2G,2 | 
[V:1] e8- | 
[V:2] E2G4A2 | 
[V:3] c6c2 | 
[V:4] C,8- | 
[V:1] e4z4 | 
[V:2] G2E2F2G2 | 
[V:3] c4d4 | 
[V:4] C,4z4 | 
[V:1] z2c2d4 | 
[V:2] A4G4 | 
[V:3] c3B/A/B4 | 
[V:4] z8 | 
[V:1] c2A2c4 | 
[V:2] z4z2c2 | 
[V:3] A8 | 
[V:4] z8 | 
[V:1] B4ABcd | 
[V:2] d4c2A2 | 
[V:3] z8 | 
[V:4] z8 | 
[V:1] e2f4e2 | 
[V:2] c4B4 | 
[V:3] z8 | 
[V:4] z2F,2G,4 | 
[V:1] f2edc2d2 | 
[V:2] A8 | 
[V:3] z8 | 
[V:4] F,2D,2F,4 | 
[V:1] e4A4- | 
[V:2] z8 | 
[V:3] z2c2d4 | 
[V:4] E,4D,4 | 
[V:1] A4z4 | 
[V:2] z2F4F2 | 
[V:3] c2A2c4 | 
[V:4] z8 | 
[V:1] z8 | 
[V:2] D2E2F4 | 
[V:3] B4A4 | 
[V:4] z8 | 
[V:1] z8 | 
[V:2] E3FG2E2 | 
[V:3] z8 | 
[V:4] z2C,4C,2 | 
[V:1] z8 | 
[V:2] F2G4C2 | 
[V:3] z4z2G2- | 
[V:4] A,,2B,,2C,4 | 
[V:1] z8 | 
[V:2] D2E2C2c2- | 
[V:3] G2G2E2F2 | 
[V:4] G,,2G,4F,2 | 
[V:1] z4z2c2- | 
[V:2] c2B2c4- | 
[V:3] G4C4- | 
[V:4] E,4A,,4- | 
[V:1] c2c2A2B2 | 
[V:2] c4z4 | 
[V:3] C2c4B2 | 
[V:4] A,,4z4 | 
[V:1] c4B4- | 
[V:2] z4z2G2 | 
[V:3] A4G4 | 
[V:4] z4z2G,,2 | 
[V:1] B4z4 | 
[V:2] B4c4 | 
[V:3] z2G2G2E2 | 
[V:4] G,,4C,4 | 
[V:1] z2d2d4- | 
[V:2] B4z2G2 | 
[V:3] G8 | 
[V:4] G,,4z2G,,2 | 
[V:1] d4e4 | 
[V:2] B4c4 | 
[V:3] z2G2G2E2 | 
[V:4] G,,4C,4 | 
[V:1] d4z4 | 
[V:2] B8- | 
[V:3] G8 | 
[V:4] G,,8- | 
[V:1] d6B2 | 
[V:2] B8 | 
[V:3] z4G4- | 
[V:4] G,,8 | 
[V:1] d2c2B2A2 | 
[V:2] z8 | 
[V:3] G2E2G2F2 | 
[V:4] z8 | 
[V:1] B8 | 
[V:2] z4G4- | 
[V:3] E2D2E4- | 
[V:4] z8 | 
[V:1] z8 | 
[V:2] G2E2G2F2 | 
[V:3] E4z4 | 
[V:4] C,6A,,2 | 
[V:1] z8 | 
[V:2] E2D2E4- | 
[V:3] z8 | 
[V:4] C,2B,,2A,,2G,,2 | 
[V:1] z2c2c4 | 
[V:2] E8 | 
[V:3] z8 | 
[V:4] A,,4z2A,,2 | 
[V:1] c4z2c2 | 
[V:2] z2A2A4 | 
[V:3] z2E2E4 | 
[V:4] A,,4A,,4 | 
[V:1] c6c2 | 
[V:2] A4z2A2 | 
[V:3] E4z2E2 | 
[V:4] z2A,,2A,,2A,,2 | 
[V:1] c4c2c2 | 
[V:2] A2A2A2A2 | 
[V:3] E2E2E2E2 | 
[V:4] A,,2A,,2C,4 | 
[V:1] d4e4- | 
[V:2] B4c4 | 
[V:3] F2G2C4- | 
[V:4] B,,4A,,4- | 
[V:1] e4z4 | 
[V:2] A4z4 | 
[V:3] C4G4- | 
[V:4] A,,4z4 | 
[V:1] z8 | 
[V:2] z8 | 
[V:3] G2F2E4 | 
[V:4] z4C,4- | 
[V:1] z8 | 
[V:2] z4c4- | 
[V:3] D4E3F | 
[V:4] C,2B,,2A,,4 | 
[V:1] z4c4- | 
[V:2] c2B2A4 | 
[V:3] G3F/E/F2E2- | 
[V:4] G,,4A,,4 | 
[V:1] c2B2A4 | 
[V:2] G4A2c2 | 
[V:3] EDG2F4 | 
[V:4] z4z2A,,2 | 
[V:1] G4A4 | 
[V:2] c2c2d4 | 
[V:3] C4z4 | 
[V:4] E,2E,2F,4 | 
[V:1] z2c2c2c2 | 
[V:2] e8 | 
[V:3] z2G2G2A2 | 
[V:4] C,6B,,A,, | 
[V:1] d4e4- | 
[V:2] z4c4- | 
[V:3] B4c4 | 
[V:4] G,,4C,3D, | 
[V:1] e4z4 | 
[V:2] c2B2A4 | 
[V:3] z4c4- | 
[V:4] E,F,G,E,F,4 | 
[V:1] z8 | 
[V:2] G4A4 | 
[V:3] c2B2A4 | 
[V:4] E,4z2F,2- | 
[V:1] z4f4- | 
[V:2] z8 | 
[V:3] G4A4- | 
[V:4] F,2E,2D,4 | 
[V:1] f2e2d4 | 
[V:2] z8 | 
[V:3] A4z2D2 | 
[V:4] C,4D,4 | 
[V:1] c4d4 | 
[V:2] z8 | 
[V:3] A2A2B4 | 
[V:4] A,,4z4 | 
[V:1] z8 | 
[V:2] z2c2c2c2 | 
[V:3] A4z4 | 
[V:4] z2A,,2E,2E,2 | 
[V:1] z2A2e2e2 | 
[V:2] d4c4 | 
[V:3] z2A4G2 | 
[V:4] F,4C,4 | 
[V:1] f4e4 | 
[V:2] z4z2c2 | 
[V:3] A2B2c4 | 
[V:4] z4z2A,,2 | 
[V:1] z4z2A2 | 
[V:2] c2c2d4 | 
[V:3] z4z2A2- | 
[V:4] E,2E,2F,4 | 
[V:1] e2e2f4 | 
[V:2] c4z4 | 
[V:3] A2G2A2B2 | 
[V:4] C,4z4 | 
[V:1] e3dc2B2- | 
[V:2] z2c2c2c2 | 
[V:3] c4z4 | 
[V:4] z2A,,2E,2E,2 | 
[V:1] B2A4^G2 | 
[V:2] d4e3d | 
[V:3] z2A2B2B2 | 
[V:4] F,4E,4 | 
[V:1] A4z4 | 
[V:2] cBA2A2^G2 | 
[V:3] c4B4 | 
[V:4] z2A,,2E,2E,2 | 
[V:1] z2C2E2E2 | 
[V:2] A2c3BG2 | 
[V:3] z4z2c2 | 
[V:4] F,4C,4 | 
[V:1] F4E3F | 
[V:2] A4G3A | 
[V:3] c2c2c4 | 
[V:4] z2F,,2C,4 | 
[V:1] G2A3Bcd | 
[V:2] B2E2A3B | 
[V:3] d2c3BA2 | 
[V:4] B,,2A,,2F,3E, | 
[V:1] ecf3ee2- | 
[V:2] c2d3cBA | 
[V:3] G2F2D2E2 | 
[V:4] E,2D,4G,,2 | 
[V:1] e2d2e4- | 
[V:2] c2B2G2C2 | 
[V:3] F4E4 | 
[V:4] A,,2B,,2C,4- | 
[V:1] e8- | 
[V:2] G4A2B2 | 
[V:3] c6B2 | 
[V:4] C,2B,,2A,,2G,,2 | 
[V:1] e8 |]  
[V:2] c3B/A/!fermata!B4 |]  
[V:3] A4!fermata!G4 |]  
[V:4] A,,4!fermata!E,4 |]  



